images/eth-coin-ver.svg

<svg width="113" height="151" viewBox="0 0 113 151" fill="none" xmlns="http://www.w3.org/2000/svg">
<path d="M49.2498 131.066C22.5926 115.207 0.982637 77.2053 0.982635 46.1872C0.982634 15.169 22.5926 2.88042 49.2498 18.7398C75.907 34.5991 97.5169 72.6009 97.5169 103.619C97.5169 134.637 75.907 146.926 49.2498 131.066Z" fill="white" stroke="#0D0B33" stroke-width="1.72736"/>
<path d="M48.9248 38.297L68.8605 88.0026L48.9248 90.0997L28.9889 64.9827L48.9248 38.297Z" fill="#070707"/>
<path d="M48.9244 113.296L28.9889 69.3479L48.9248 94.4582L68.8725 92.3751L48.9248 113.297L48.9244 113.296Z" fill="#070707"/>
<path d="M49.2498 18.7398C36.066 10.8963 24.1168 9.93765 15.4057 14.7246L24.9859 9.27674C43.8354 -1.44215 74.3964 16.7398 93.2459 49.8872C112.095 83.0346 112.095 118.595 93.2459 129.314L84.0321 134.554C84.0327 134.547 84.0333 134.541 84.0339 134.535C92.3833 129.406 97.5169 118.737 97.5169 103.619C97.5169 72.6009 75.907 34.5991 49.2498 18.7398Z" fill="#79EFBD" stroke="#0D0B33" stroke-width="1.72736"/>
<path d="M97.2072 97.0372L107.074 91.5644C106.936 86.2844 106.336 82.4724 104.3 74.2596L93.8865 80.0511C95.5585 85.7608 96.6948 91.4745 97.2072 97.0372Z" fill="#0D0B33"/>
<path d="M89.417 67.647L99.0728 61.997C88.7516 39.8556 80.8648 29.4376 62.5123 15.0018L52.4934 20.7944C67.8974 31.1481 81.3252 48.7351 89.417 67.647Z" fill="#0D0B33"/>
</svg>

<svg xmlns="http://www.w3.org/2000/svg" width="113" height="151" fill="none"><path fill="#fff" stroke="#0D0B33" stroke-width="1.727" d="M49.25 131.066C22.593 115.207.983 77.206.983 46.187.983 15.17 22.593 2.88 49.25 18.74 75.907 34.6 97.517 72.6 97.517 103.619c0 31.018-21.61 43.307-48.267 27.447Z"/><path fill="#070707" d="M48.925 38.297 68.86 88.003 48.925 90.1 28.989 64.983l19.936-26.686Z"/><path fill="#070707" d="M48.924 113.296 28.99 69.348l19.936 25.11 19.948-2.083-19.948 20.922v-.001Z"/><path fill="#79EFBD" stroke="#0D0B33" stroke-width="1.727" d="M49.25 18.74c-13.184-7.844-25.133-8.802-33.844-4.015l9.58-5.448c18.85-10.72 49.41 7.463 68.26 40.61 18.849 33.148 18.849 68.708 0 79.427l-9.214 5.24.002-.019c8.35-5.129 13.483-15.798 13.483-30.916 0-31.018-21.61-69.02-48.267-84.88Z"/><path fill="#0D0B33" d="m97.207 97.037 9.867-5.473c-.138-5.28-.738-9.092-2.774-17.304L93.887 80.05c1.671 5.71 2.808 11.424 3.32 16.986ZM89.417 67.647l9.656-5.65c-10.321-22.141-18.208-32.56-36.56-46.995l-10.02 5.792c15.404 10.354 28.832 27.941 36.924 46.853Z"/></svg>
